X:190 
T:Speed the Plough (reel)  
B:CRE3.092 (Deifrigh leis an gCÃÂÃÂÃÂÃÂ©achta)
F:file ID: cre.3/190speed_p
R:reel
Q:180
M:C
L:1/8
K:D
d3A BAFB|AFFE FDDE|F2AF G2BG|ABde fdef|
d2fd BAFB|AFF2 EFDE|F2AF G2BG|1 ABde fedc:|\
[2 ABde fdd2||
|:faag afdf|ge (3fed ed (3Bcd|faa2 a3f|ABde fdd2|
faag afdf|ge (3fed edBA|F2AF G2BG|ABde fdd2:|

%%%

